!!!SOCIAL_FUNCTION:	songs used in the treatment of the sick
!!!PDT:	1929
!!!OTL: No_63_In_the_Medicine_Man's_House.krn
!!!REG: Southwest
!!!LANG: Non-Tone
!!!LING_GROUP: Uto-Aztecan
**kern
*staff1
=1-
*clefF4
*k[b-e-a-d-]
*M2/4
4F\
8.c\L
16c\Jk
=2
4c\
8.c\L
16A-\Jk
=3
8.A-\L
16G\Jk
4F\
=4!|:
4A-\
8.c\L
16A-\Jk
=5
4A-\
8.A-\L
16G\Jk
=6
8.F\L
16A-\Jk
4F\
=7
(8.A-\L
16G\Jk)
8.A-\L
16A-\Jk
=8
2A-\
=9||
*M3/4
8.A-\L
16G\Jk
4F\
4F;\
=10||
*M2/4
8.A-\L
16F\Jk
8.A-\L
16A-\Jk
=11||
*M3/4
(8.A-\L
16G\Jk)
4F\
8F\
8r
=12||
*M2/4
8.F\L
16F\Jk
8.F\L
16F\Jk
=13
8.F\L
16F\Jk
8F\
8r
=14
8.F\L
16F\Jk
[4F\
=15
2F\]
==:|!
*-
